assets/img/item/why/garantee.svg

<svg width="100" height="100" viewBox="0 0 100 100" fill="none" xmlns="http://www.w3.org/2000/svg">
<g clip-path="url(#clip0_121_8)">
<path d="M1.2676 54.0637C-1.53077 49.8027 0.683241 45.2142 4.22409 42.9136C5.95374 41.7897 6.16397 40.9859 5.13788 39.1354C3.99516 37.0746 3.08594 34.9497 3.31652 32.4995C3.50993 30.4442 4.54474 28.9234 6.18843 27.7655C7.51128 26.8336 8.99347 26.2651 10.5696 25.9485C12.3021 25.6005 12.8394 24.9524 12.7188 23.1612C12.6169 21.6479 12.4111 20.1562 12.6804 18.6215C13.2555 15.3434 15.4424 13.2287 18.7698 12.7344C20.2309 12.5173 21.6535 12.6432 23.0989 12.7578C24.8138 12.8937 25.464 12.3719 25.9035 10.7137C26.2028 9.58426 26.569 8.47669 27.1317 7.44331C29.0608 3.90086 32.2111 2.59821 36.0836 3.74591C37.1772 4.07001 38.1941 4.55029 39.1505 5.17558C40.5757 6.10733 41.6893 5.91128 42.7322 4.55828C43.666 3.34681 44.6685 2.2136 45.957 1.35592C48.7299 -0.489845 51.6666 -0.454218 54.3679 1.49735C55.4682 2.2923 56.3996 3.25871 57.1521 4.39145C58.159 5.90688 59.1377 6.14572 60.7365 5.23847C62.5694 4.19833 64.45 3.38996 66.6304 3.37921C69.0088 3.3675 70.768 4.40165 72.114 6.26727C73.1029 7.63785 73.6501 9.2036 74.061 10.8259C74.4459 12.3456 75.1563 12.8671 76.7347 12.7733C78.1764 12.6877 79.5974 12.4215 81.0644 12.688C85.0435 13.4109 87.2701 15.914 87.431 19.9691C87.4717 20.9976 87.3648 22.0121 87.2372 23.0331C87.0243 24.7356 87.5278 25.4401 89.1479 25.9441C90.3969 26.3327 91.6566 26.6931 92.8087 27.3409C96.3409 29.327 97.4661 32.1581 96.233 36.0128C95.876 37.1285 95.3785 38.1829 94.7848 39.1947C93.8565 40.7766 94.03 41.6955 95.4891 42.8589C96.4612 43.634 97.3905 44.4499 98.1767 45.4167C100.64 48.4461 100.611 51.8223 98.0667 54.7726C97.3506 55.6029 96.5609 56.3659 95.6706 57.0221C94.0038 58.2506 93.8326 59.1096 94.8414 60.8758C95.7061 62.3897 96.3649 63.968 96.6197 65.7208C97.0075 68.388 96.0266 70.4173 93.9084 71.9659C92.5749 72.9409 91.0501 73.499 89.4766 73.9526C87.3893 74.5543 86.8921 75.324 87.2768 77.4502C87.5463 78.9399 87.492 80.4074 87.1501 81.8684C86.1287 86.2331 82.5806 87.683 78.3605 87.3939C78.2201 87.3843 78.0821 87.343 77.9426 87.3182C74.8352 86.7666 74.3361 87.6667 73.8261 89.9969C73.5834 91.1055 73.1023 92.1392 72.5024 93.1106C70.5859 96.2137 67.8357 97.2915 64.3164 96.3144C63.0453 95.9615 61.8768 95.3755 60.7241 94.7487C59.0981 93.8644 58.1361 94.1045 57.1393 95.6044C56.3471 96.7965 55.3778 97.8212 54.1808 98.6152C51.0395 100.699 47.8037 100.408 44.8663 97.7776C44.1256 97.1144 43.4758 96.3666 42.8715 95.5771C41.7011 94.0478 40.6754 93.8653 39.057 94.8785C37.5678 95.8108 35.9744 96.4977 34.2073 96.6043C30.685 96.8167 28.1163 95.1057 26.7388 91.6647C26.3982 90.814 26.1426 89.9269 25.886 89.0455C25.4649 87.5993 24.6019 87.0079 23.1349 87.2132C21.5859 87.43 20.0406 87.5051 18.4899 87.2068C13.5272 86.2521 12.2047 82.3004 12.5845 78.1184C12.61 77.8374 12.6826 77.5605 12.7044 77.2794C12.8852 74.9502 12.5763 74.5196 10.2988 73.9766C8.98186 73.6626 7.72051 73.2214 6.57527 72.4836C3.80568 70.6993 2.74957 68.002 3.517 64.7955C3.86732 63.3318 4.4778 61.9905 5.21787 60.6943C6.07489 59.1933 5.86873 58.2676 4.47337 57.2394C3.27086 56.3534 2.14321 55.39 1.2676 54.0637ZM72.7645 16.5316C70.3852 15.1638 69.4219 12.8784 68.8061 10.3811C68.2227 8.01473 67.0905 7.47647 64.8551 8.51168C63.7642 9.01689 62.6644 9.50639 61.5498 9.95655C58.8213 11.0586 56.4308 10.4668 54.3328 8.46482C53.4853 7.65608 52.7178 6.77793 51.9675 5.88028C50.82 4.50723 49.3741 4.43586 48.1275 5.70731C47.3104 6.54073 46.5796 7.46029 45.7464 8.27615C43.5959 10.3818 41.0661 10.9011 38.2125 9.98252C37.1272 9.63315 36.1072 9.1535 35.1222 8.58755C33.2052 7.4862 31.9402 7.96555 31.1761 10.0644C30.7286 11.2935 30.3348 12.549 29.7887 13.7336C28.8351 15.802 27.2139 17.0141 24.923 17.4018C23.2147 17.691 21.5429 17.448 19.8515 17.3727C18.059 17.2929 17.2317 18.1487 17.3279 19.9505C17.3881 21.0784 17.566 22.1983 17.5235 23.3352C17.4026 26.567 15.9659 28.9295 12.9879 30.2984C11.9856 30.7591 10.9261 31.0347 9.86715 31.3197C8.11267 31.7919 7.48613 33.2553 8.37235 34.8433C8.99456 35.9582 9.58368 37.0843 9.97817 38.304C10.8431 40.978 10.3799 43.3778 8.56688 45.5411C7.78414 46.4751 6.85142 47.2239 5.90725 47.97C4.32646 49.2192 4.30988 50.7505 5.88319 52.0174C7.07311 52.9756 8.23777 53.964 9.10946 55.2297C10.1444 56.7325 10.6607 58.3638 10.3368 60.2346C10.0406 61.9446 9.32391 63.4613 8.4794 64.9429C7.44133 66.7641 8.0473 68.1973 10.059 68.7309C10.708 68.903 11.3615 69.0693 11.9928 69.2947C15.0373 70.3818 17.0313 72.388 17.4541 75.7032C17.6342 77.1152 17.448 78.5232 17.3374 79.9361C17.1821 81.9186 18.2923 82.9343 20.2599 82.6239C21.2864 82.4619 22.3043 82.4572 23.3285 82.4617C26.8813 82.4776 29.0146 83.9755 30.2584 87.3163C30.6286 88.3107 30.9444 89.3265 31.3418 90.3095C32.0037 91.947 33.2987 92.3893 34.8411 91.5776C35.7485 91.1001 36.6511 90.5958 37.6028 90.2232C40.7903 88.9752 43.6382 89.4959 46.0452 92.0036C46.658 92.6421 47.2543 93.2975 47.8361 93.9645C49.2811 95.6215 50.7653 95.6067 52.1717 93.8857C53.0478 92.8136 53.9513 91.7709 55.0536 90.9224C56.5864 89.7425 58.2577 89.1991 60.2169 89.6573C61.8561 90.0408 63.3494 90.7563 64.8525 91.4652C67.1333 92.541 68.2273 92.0359 68.7864 89.6054C69.1316 88.1046 69.6585 86.6764 70.5704 85.4375C72.7193 82.5176 75.8057 82.1678 79.0614 82.5654C82.1512 82.9427 82.8758 82.1624 82.5142 79.0797C81.9622 74.3731 83.0152 70.9074 88.3727 69.2378C89.1485 68.9961 89.9377 68.7659 90.6694 68.4214C91.932 67.8268 92.3169 66.6543 91.7201 65.4045C91.4765 64.8942 91.1686 64.4151 90.905 63.9139C88.9489 60.1945 89.0978 56.8947 91.354 54.3174C92.1275 53.4338 92.9951 52.6143 94.0167 52.0565C95.7118 51.131 95.4012 49.001 94.1803 48.0511C93.2889 47.3576 92.441 46.5917 91.6611 45.7747C90.2915 44.34 89.5365 42.6573 89.61 40.6004C89.685 38.4995 90.5321 36.7033 91.5221 34.9335C92.4452 33.2833 91.9563 31.981 90.1698 31.3368C89.0059 30.9171 87.8083 30.5761 86.6784 30.08C84.6568 29.1924 83.2985 27.681 82.7165 25.5128C82.3051 23.9806 82.2747 22.4178 82.511 20.8779C82.956 17.9765 82.1283 17.055 79.2196 17.3978C79.0441 17.4184 78.872 17.4714 78.6964 17.4877C76.6933 17.6732 74.7365 17.5453 72.7645 16.5316Z" fill="#0769CD"/>
<path d="M32.7546 23.2193C38.0243 19.8598 43.7404 18.1272 49.8849 18.1555C65.2304 18.2262 77.7403 28.5749 81.0151 42.9352C84.3112 57.3889 77.3087 71.9772 64.1028 78.5683C47.7605 86.7247 27.6727 79.2351 20.6213 62.3565C14.635 48.0274 19.5764 32.0188 32.7546 23.2193ZM26.7802 63.9676C32.9742 74.0725 44.7673 79.0941 56.0112 76.4144C70.1696 73.0402 79.1063 59.518 76.6459 45.192C74.1909 30.8968 60.3285 21.0625 45.8775 23.2569C33.4709 25.1409 23.2367 35.6346 22.8696 49.5783C22.7355 54.6682 24.0909 59.4408 26.7802 63.9676Z" fill="#0769CD"/>
<path d="M35.0487 48.1219C35.2608 47.9477 35.5036 47.8093 35.7682 47.7367C36.8057 47.452 37.6083 47.8833 38.3266 48.5986C40.4087 50.6718 42.4882 52.7478 44.5557 54.8355V54.8355C44.9485 55.2321 45.4797 55.5946 45.9069 55.2354C46.0771 55.0923 46.1983 54.9291 46.3355 54.7922C51.3979 49.7418 56.4562 44.6873 61.5073 39.6257C62.1603 38.9714 62.8561 38.4985 63.8425 38.6268C64.7269 38.7418 65.3564 39.1782 65.7238 39.9881C66.1127 40.8453 65.9768 41.6458 65.4257 42.3828C65.2573 42.608 65.0461 42.8025 64.846 43.0026C59.0889 48.7607 53.3316 54.5187 47.5719 60.2742C45.9846 61.8603 44.8421 61.8528 43.2388 60.2523C40.4578 57.4761 37.6685 54.7079 34.9049 51.9144C33.6211 50.6168 33.6767 49.2488 35.0487 48.1219Z" fill="#0769CD"/>
</g>
<defs>
<clipPath id="clip0_121_8">
<rect width="100" height="100" fill="white"/>
</clipPath>
</defs>
</svg>

<svg width="100" height="100" viewBox="0 0 100 100" fill="none" xmlns="http://www.w3.org/2000/svg"><g clip-path="url(#clip0_121_8)" fill="#0769CD"><path d="M1.268 54.064c-2.799-4.261-.585-8.85 2.956-11.15 1.73-1.124 1.94-1.928.914-3.779-1.143-2.06-2.052-4.185-1.821-6.636.193-2.055 1.228-3.576 2.871-4.734 1.323-.931 2.805-1.5 4.382-1.817 1.732-.348 2.27-.996 2.149-2.787-.102-1.513-.308-3.005-.039-4.54.575-3.278 2.762-5.392 6.09-5.887 1.46-.217 2.884-.09 4.329.024 1.715.136 2.365-.386 2.805-2.044.299-1.13.665-2.237 1.228-3.27 1.929-3.543 5.08-4.846 8.952-3.698 1.093.324 2.11.804 3.066 1.43 1.426.931 2.54.735 3.582-.618.934-1.211 1.937-2.344 3.225-3.202 2.773-1.846 5.71-1.81 8.41.141a11.174 11.174 0 012.785 2.894c1.007 1.516 1.986 1.755 3.584.847C62.57 4.198 64.45 3.39 66.63 3.38c2.379-.011 4.138 1.023 5.484 2.888.989 1.37 1.536 2.937 1.947 4.559.385 1.52 1.095 2.041 2.674 1.947 1.441-.085 2.862-.351 4.33-.085 3.978.723 6.205 3.226 6.366 7.281.04 1.029-.066 2.043-.194 3.064-.213 1.703.29 2.407 1.91 2.911 1.25.389 2.51.75 3.662 1.397 3.532 1.986 4.657 4.817 3.424 8.672a15.81 15.81 0 01-1.448 3.182c-.928 1.582-.755 2.5.704 3.664.972.775 1.901 1.59 2.688 2.558 2.463 3.03 2.434 6.405-.11 9.356a14.673 14.673 0 01-2.396 2.25c-1.667 1.228-1.838 2.087-.83 3.853.865 1.514 1.524 3.092 1.779 4.845.387 2.667-.593 4.696-2.712 6.245-1.333.975-2.858 1.533-4.431 1.987-2.088.601-2.585 1.371-2.2 3.497.27 1.49.215 2.957-.127 4.418-1.021 4.365-4.57 5.815-8.79 5.526-.14-.01-.278-.051-.417-.076-3.108-.551-3.607.349-4.117 2.679-.243 1.109-.724 2.142-1.324 3.114-1.916 3.103-4.666 4.18-8.186 3.203-1.27-.352-2.44-.938-3.592-1.565-1.626-.885-2.588-.644-3.585.855-.792 1.192-1.761 2.217-2.958 3.011-3.142 2.084-6.377 1.793-9.315-.837-.74-.664-1.39-1.411-1.995-2.2-1.17-1.53-2.196-1.713-3.814-.7-1.49.933-3.083 1.62-4.85 1.726-3.522.213-6.09-1.498-7.468-4.94-.34-.85-.596-1.737-.853-2.618-.421-1.447-1.284-2.038-2.751-1.833-1.55.217-3.094.292-4.645-.006-4.963-.955-6.285-4.907-5.905-9.089.025-.28.098-.557.12-.839.18-2.329-.129-2.76-2.406-3.302-1.317-.314-2.578-.756-3.724-1.493-2.77-1.785-3.825-4.482-3.058-7.688.35-1.464.96-2.806 1.7-4.102.858-1.5.652-2.426-.744-3.455-1.202-.886-2.33-1.849-3.205-3.175zm71.496-37.532c-2.379-1.368-3.342-3.654-3.958-6.15-.583-2.367-1.715-2.906-3.95-1.87a74.452 74.452 0 01-3.306 1.445c-2.729 1.102-5.12.51-7.217-1.492-.848-.809-1.615-1.687-2.365-2.585-1.148-1.373-2.594-1.444-3.84-.173-.818.834-1.548 1.753-2.382 2.57-2.15 2.105-4.68 2.624-7.534 1.706a16.1 16.1 0 01-3.09-1.395c-1.917-1.102-3.182-.622-3.946 1.476-.447 1.23-.841 2.485-1.387 3.67-.954 2.068-2.575 3.28-4.866 3.668-1.708.289-3.38.046-5.071-.03-1.793-.08-2.62.777-2.524 2.579.06 1.127.238 2.247.195 3.384-.12 3.232-1.557 5.595-4.535 6.963-1.002.461-2.062.737-3.12 1.022-1.755.472-2.382 1.935-1.496 3.523.623 1.115 1.212 2.241 1.606 3.461.865 2.674.402 5.074-1.411 7.237-.783.934-1.716 1.683-2.66 2.429-1.58 1.25-1.597 2.78-.024 4.047 1.19.959 2.355 1.947 3.226 3.213 1.035 1.503 1.552 3.134 1.228 5.005-.296 1.71-1.013 3.226-1.858 4.708-1.038 1.821-.432 3.254 1.58 3.788.649.172 1.303.338 1.934.564 3.044 1.087 5.038 3.093 5.461 6.408.18 1.412-.006 2.82-.117 4.233-.155 1.983.955 2.998 2.923 2.688 1.026-.162 2.044-.167 3.068-.162 3.553.016 5.687 1.513 6.93 4.854.37.995.686 2.01 1.084 2.993.662 1.638 1.957 2.08 3.5 1.269.907-.478 1.81-.982 2.76-1.355 3.188-1.248 6.036-.727 8.443 1.78.613.64 1.21 1.294 1.791 1.962 1.445 1.656 2.93 1.642 4.336-.08.876-1.071 1.78-2.114 2.882-2.963 1.532-1.18 3.204-1.723 5.163-1.265 1.64.384 3.132 1.1 4.636 1.808 2.28 1.076 3.374.57 3.933-1.86.346-1.5.873-2.929 1.784-4.168 2.15-2.92 5.236-3.27 8.491-2.872 3.09.378 3.815-.403 3.453-3.485-.552-4.707.501-8.173 5.859-9.842.775-.242 1.565-.472 2.296-.817 1.263-.594 1.648-1.767 1.051-3.017-.243-.51-.551-.989-.815-1.49-1.956-3.72-1.807-7.02.449-9.597.773-.883 1.641-1.703 2.663-2.26 1.695-.926 1.384-3.056.163-4.006a23.127 23.127 0 01-2.519-2.276c-1.37-1.435-2.124-3.118-2.051-5.175.075-2.1.922-3.897 1.912-5.666.923-1.65.434-2.953-1.352-3.597-1.164-.42-2.362-.76-3.492-1.257-2.021-.888-3.38-2.399-3.962-4.567-.41-1.532-.441-3.095-.205-4.635.445-2.901-.383-3.823-3.291-3.48-.176.02-.348.073-.524.09-2.003.185-3.96.057-5.931-.956z"/><path d="M32.755 23.22c5.27-3.36 10.985-5.093 17.13-5.064 15.345.07 27.855 10.419 31.13 24.78 3.296 14.453-3.706 29.041-16.912 35.632-16.342 8.157-36.43.667-43.482-16.212-5.986-14.329-1.045-30.337 12.134-39.137zM26.78 63.967c6.194 10.105 17.987 15.126 29.231 12.446C70.17 73.04 79.106 59.518 76.646 45.192c-2.455-14.295-16.318-24.13-30.769-21.935-12.406 1.884-22.64 12.378-23.007 26.321-.135 5.09 1.22 9.863 3.91 14.39z"/><path d="M35.049 48.122c.212-.174.455-.313.72-.385 1.037-.285 1.84.146 2.558.862a1258.71 1258.71 0 016.229 6.237c.393.396.924.759 1.35.4.171-.144.292-.307.43-.444 5.062-5.05 10.12-10.105 15.171-15.166.653-.655 1.35-1.127 2.336-1 .884.116 1.513.552 1.88 1.362.39.857.254 1.658-.297 2.395-.169.225-.38.42-.58.62a54093.914 54093.914 0 01-17.274 17.271c-1.587 1.586-2.73 1.579-4.333-.022-2.781-2.776-5.57-5.544-8.334-8.338-1.284-1.297-1.228-2.665.144-3.792z"/></g><defs><clipPath id="clip0_121_8"><path fill="#fff" d="M0 0h100v100H0z"/></clipPath></defs></svg>
